public/icons/icon/geo-hexagon.svg

<svg width="30" height="30" viewBox="0 0 30 30" fill="none" xmlns="http://www.w3.org/2000/svg">
<path d="M14.0086 3.21735C14.623 2.86663 15.377 2.86663 15.9915 3.21735L24.8171 8.25497C25.4407 8.61092 25.8256 9.27387 25.8256 9.99193V20.0081C25.8256 20.7261 25.4407 21.3891 24.8171 21.745L15.9915 26.7826C15.377 27.1334 14.623 27.1334 14.0086 26.7826L5.18295 21.745C4.55934 21.3891 4.1744 20.7261 4.1744 20.0081V9.99193C4.1744 9.27387 4.55934 8.61092 5.18295 8.25497L14.0086 3.21735Z" stroke="black" stroke-width="2"/>
</svg>

<svg xmlns="http://www.w3.org/2000/svg" width="30" height="30" fill="none"><path stroke="#000" stroke-width="2" d="M14.009 3.217a2 2 0 0 1 1.982 0l8.826 5.038a2 2 0 0 1 1.009 1.737v10.016a2 2 0 0 1-1.009 1.737l-8.825 5.038a2 2 0 0 1-1.983 0l-8.826-5.038a2 2 0 0 1-1.009-1.737V9.992a2 2 0 0 1 1.009-1.737l8.826-5.038Z"/></svg>
